app/img/svg/logotype-white-desktop.svg

<svg xmlns="http://www.w3.org/2000/svg" width="293" height="81"><defs><clipPath id="cp1"><path d="M0 0h293v81H0z"/></clipPath></defs><style>.shp0{fill:#fff}.shp1{fill:#d22856}</style><g clip-path="url(#cp1)"><path fill-rule="evenodd" class="shp0" d="M143.75 37.57c0-1.41 1.16-2.57 2.51-2.57h14.36c10.17 0 16.87 5.41 16.87 14.29v.13c0 9.72-8.11 14.74-17.71 14.74h-10.94v13.65c0 1.42-1.16 2.58-2.58 2.58-1.35 0-2.51-1.16-2.51-2.58V37.57zm16.23 21.96c7.46 0 12.36-3.99 12.36-9.92v-.12c0-6.44-4.83-9.79-12.11-9.79h-11.39v19.84h11.14v-.01zm27.23-22.28c0-1.42 1.15-2.58 2.51-2.58 1.41 0 2.57 1.16 2.57 2.58v40.57c0 1.41-1.16 2.57-2.57 2.57-1.36 0-2.51-1.16-2.51-2.57V37.25zm18.28.06c0-1.35 1.16-2.51 2.51-2.51h.71c1.16 0 1.87.58 2.57 1.48l27.37 34.9V37.19c0-1.36 1.1-2.52 2.51-2.52 1.36 0 2.45 1.16 2.45 2.52v40.69c0 1.36-.96 2.38-2.31 2.38h-.26c-1.1 0-1.87-.64-2.64-1.54l-27.95-35.74v34.9c0 1.36-1.09 2.52-2.51 2.52-1.35 0-2.45-1.16-2.45-2.52V37.31zm50.86-.06c0-1.42 1.16-2.58 2.51-2.58 1.42 0 2.57 1.16 2.57 2.58v24.66l25.7-26.33c.58-.52 1.16-.91 1.99-.91 1.35 0 2.45 1.23 2.45 2.52 0 .7-.32 1.28-.84 1.8l-15.97 15.84 17.13 21.12c.45.58.71 1.09.71 1.87 0 1.35-1.15 2.58-2.57 2.58-.97 0-1.61-.52-2.06-1.16l-16.8-20.93-9.73 9.72v9.79c0 1.42-1.16 2.58-2.57 2.58-1.36 0-2.52-1.16-2.52-2.58V37.25z"/><path class="shp1" d="M197 20c-4.01 0-7.25-3.25-7.25-7.25 0 4-3.25 7.25-7.25 7.25 4 0 7.25 3.25 7.25 7.25 0-4 3.24-7.25 7.25-7.25z"/><path class="shp0" d="M86.19 38.88c.49 0 .98.02 1.46.06-.88-1.45-2.46-2.44-4.27-2.44-1.76 0-3.23-1.14-3.77-2.71-1.46.42-2.85.97-4.18 1.63.12.04.24.08.38.08 2.2 0 4 1.79 4 4 0 .19-.03.38-.06.56 2-.76 4.17-1.18 6.44-1.18zm34.73 17.4c0-.02-10.35-42.73-10.35-42.73-.72-4.69-5.18-13.3-17.19-13.3-1.66 0-3 1.34-3 3s1.34 3 3 3c9.71 0 11.15 7.46 11.27 8.29l9.54 39.4h-4.15c-.89-7.12-4.9-13.26-10.61-17.05a5.02 5.02 0 0 0-3.06 4.61c0 .18-.03.34-.05.51 3.98 2.72 6.83 6.98 7.66 11.93.16.98.27 1.98.27 3 0 1.03-.11 2.03-.27 3C102.55 68.49 95.14 75 86.19 75S69.83 68.49 68.4 59.94c-.17-.97-.27-1.97-.27-3 0-1.02.1-2.02.27-3 .29-1.76.85-3.42 1.61-4.97a3.978 3.978 0 0 1-3.7-3.97c0-.37-.16-.71-.39-.97a24.12 24.12 0 0 0-3.59 9.91h-3.64c-1.48-11.85-11.6-21.06-23.85-21.06-12.25 0-22.37 9.2-23.85 21.06H6.84l9.53-39.4c.13-.83 1.57-8.29 11.28-8.29 1.66 0 3-1.34 3-3s-1.34-3-3-3c-12.01 0-16.47 8.61-17.2 13.3 0 0-10.34 42.71-10.35 42.73-.53 2.22 1.07 3.65 2.86 3.65.02 0 .04.01.07.01h7.96c.16 1.26.43 2.48.78 3.66.11-.21.2-.44.2-.7 0-2.21 1.79-4 4-4 .33 0 .65.05.96.12-.09-.68-.15-1.37-.15-2.08 0-1.03.1-2.02.27-3 1.43-8.54 8.84-15.06 17.79-15.06S51.2 45.4 52.63 53.94c.17.98.27 1.97.27 3 0 1.02-.1 2.02-.27 3C51.2 68.48 43.79 75 34.84 75c-4.04 0-7.77-1.34-10.77-3.59-.7.61-1.6.99-2.6.99-.83 0-1.5.67-1.5 1.49 0 .58-.13 1.13-.35 1.62C23.77 78.93 29.06 81 34.85 81c12.25 0 22.37-9.21 23.85-21.06h3.63C63.81 71.79 73.93 81 86.18 81c12.25 0 22.38-9.21 23.86-21.06H118c.02 0 .05-.01.07-.01 1.79 0 3.39-1.43 2.85-3.65z"/><path class="shp1" d="M101.37 32.5a9 9 0 0 1-9-9c0 4.97-4.02 9-8.99 9 4.97 0 8.99 4.03 8.99 9a9 9 0 0 1 9-9zm-25.56 7c-3.04 0-5.5-2.46-5.5-5.5 0 3.04-2.46 5.5-5.5 5.5 3.04 0 5.5 2.46 5.5 5.5 0-3.04 2.46-5.5 5.5-5.5zM21.47 68.39c-3.04 0-5.5-2.46-5.5-5.5 0 3.04-2.46 5.5-5.5 5.5 3.04 0 5.5 2.46 5.5 5.5 0-3.04 2.46-5.5 5.5-5.5z"/></g></svg>

<svg xmlns="http://www.w3.org/2000/svg" viewBox="0 0 293 81" width="293" height="81"><defs><clipPath clipPathUnits="userSpaceOnUse" id="cp1"><path d="M0 0L293 0L293 81L0 81Z" /></clipPath></defs><style>tspan { white-space:pre }.shp0 { fill: #ffffff } .shp1 { fill: #d22856 } </style><g clip-path="url(#cp1)"><path fill-rule="evenodd" class="shp0" d="M143.75 37.57C143.75 36.16 144.91 35 146.26 35L160.62 35C170.79 35 177.49 40.41 177.49 49.29L177.49 49.42C177.49 59.14 169.38 64.16 159.78 64.16L148.84 64.16L148.84 77.81C148.84 79.23 147.68 80.39 146.26 80.39C144.91 80.39 143.75 79.23 143.75 77.81L143.75 37.57L143.75 37.57ZM159.98 59.53C167.44 59.53 172.34 55.54 172.34 49.61L172.34 49.49C172.34 43.05 167.51 39.7 160.23 39.7L148.84 39.7L148.84 59.54L159.98 59.54L159.98 59.53ZM187.21 37.25C187.21 35.83 188.36 34.67 189.72 34.67C191.13 34.67 192.29 35.83 192.29 37.25L192.29 77.82C192.29 79.23 191.13 80.39 189.72 80.39C188.36 80.39 187.21 79.23 187.21 77.82L187.21 37.25ZM205.49 37.31C205.49 35.96 206.65 34.8 208 34.8L208.71 34.8C209.87 34.8 210.58 35.38 211.28 36.28L238.65 71.18L238.65 37.19C238.65 35.83 239.75 34.67 241.16 34.67C242.52 34.67 243.61 35.83 243.61 37.19L243.61 77.88C243.61 79.24 242.65 80.26 241.3 80.26L241.04 80.26C239.94 80.26 239.17 79.62 238.4 78.72L210.45 42.98L210.45 77.88C210.45 79.24 209.36 80.4 207.94 80.4C206.59 80.4 205.49 79.24 205.49 77.88L205.49 37.31L205.49 37.31ZM256.35 37.25C256.35 35.83 257.51 34.67 258.86 34.67C260.28 34.67 261.43 35.83 261.43 37.25L261.43 61.91L287.13 35.58C287.71 35.06 288.29 34.67 289.12 34.67C290.47 34.67 291.57 35.9 291.57 37.19C291.57 37.89 291.25 38.47 290.73 38.99L274.76 54.83L291.89 75.95C292.34 76.53 292.6 77.04 292.6 77.82C292.6 79.17 291.45 80.4 290.03 80.4C289.06 80.4 288.42 79.88 287.97 79.24L271.17 58.31L261.44 68.03L261.44 77.82C261.44 79.24 260.28 80.4 258.87 80.4C257.51 80.4 256.35 79.24 256.35 77.82L256.35 37.25L256.35 37.25Z" /><path class="shp1" d="M197 20C192.99 20 189.75 16.75 189.75 12.75C189.75 16.75 186.5 20 182.5 20C186.5 20 189.75 23.25 189.75 27.25C189.75 23.25 192.99 20 197 20Z" /><path class="shp0" d="M86.19 38.88C86.68 38.88 87.17 38.9 87.65 38.94C86.77 37.49 85.19 36.5 83.38 36.5C81.62 36.5 80.15 35.36 79.61 33.79C78.15 34.21 76.76 34.76 75.43 35.42C75.55 35.46 75.67 35.5 75.81 35.5C78.01 35.5 79.81 37.29 79.81 39.5C79.81 39.69 79.78 39.88 79.75 40.06C81.75 39.3 83.92 38.88 86.19 38.88ZM120.92 56.28C120.92 56.26 110.57 13.55 110.57 13.55C109.85 8.86 105.39 0.25 93.38 0.25C91.72 0.25 90.38 1.59 90.38 3.25C90.38 4.91 91.72 6.25 93.38 6.25C103.09 6.25 104.53 13.71 104.65 14.54L114.19 53.94L110.04 53.94C109.15 46.82 105.14 40.68 99.43 36.89C97.64 37.65 96.37 39.43 96.37 41.5C96.37 41.68 96.34 41.84 96.32 42.01C100.3 44.73 103.15 48.99 103.98 53.94C104.14 54.92 104.25 55.92 104.25 56.94C104.25 57.97 104.14 58.97 103.98 59.94C102.55 68.49 95.14 75 86.19 75C77.24 75 69.83 68.49 68.4 59.94C68.23 58.97 68.13 57.97 68.13 56.94C68.13 55.92 68.23 54.92 68.4 53.94C68.69 52.18 69.25 50.52 70.01 48.97C67.94 48.82 66.31 47.11 66.31 45C66.31 44.63 66.15 44.29 65.92 44.03C64.05 46.97 62.79 50.33 62.33 53.94L58.69 53.94C57.21 42.09 47.09 32.88 34.84 32.88C22.59 32.88 12.47 42.08 10.99 53.94L6.84 53.94L16.37 14.54C16.5 13.71 17.94 6.25 27.65 6.25C29.31 6.25 30.65 4.91 30.65 3.25C30.65 1.59 29.31 0.25 27.65 0.25C15.64 0.25 11.18 8.86 10.45 13.55C10.45 13.55 0.11 56.26 0.1 56.28C-0.43 58.5 1.17 59.93 2.96 59.93C2.98 59.93 3 59.94 3.03 59.94L10.99 59.94C11.15 61.2 11.42 62.42 11.77 63.6C11.88 63.39 11.97 63.16 11.97 62.9C11.97 60.69 13.76 58.9 15.97 58.9C16.3 58.9 16.62 58.95 16.93 59.02C16.84 58.34 16.78 57.65 16.78 56.94C16.78 55.91 16.88 54.92 17.05 53.94C18.48 45.4 25.89 38.88 34.84 38.88C43.79 38.88 51.2 45.4 52.63 53.94C52.8 54.92 52.9 55.91 52.9 56.94C52.9 57.96 52.8 58.96 52.63 59.94C51.2 68.48 43.79 75 34.84 75C30.8 75 27.07 73.66 24.07 71.41C23.37 72.02 22.47 72.4 21.47 72.4C20.64 72.4 19.97 73.07 19.97 73.89C19.97 74.47 19.84 75.02 19.62 75.51C23.77 78.93 29.06 81 34.85 81C47.1 81 57.22 71.79 58.7 59.94L62.33 59.94C63.81 71.79 73.93 81 86.18 81C98.43 81 108.56 71.79 110.04 59.94L118 59.94C118.02 59.94 118.05 59.93 118.07 59.93C119.86 59.93 121.46 58.5 120.92 56.28Z" /><path class="shp1" d="M101.37 32.5C96.4 32.5 92.37 28.47 92.37 23.5C92.37 28.47 88.35 32.5 83.38 32.5C88.35 32.5 92.37 36.53 92.37 41.5C92.37 36.53 96.4 32.5 101.37 32.5ZM75.81 39.5C72.77 39.5 70.31 37.04 70.31 34C70.31 37.04 67.85 39.5 64.81 39.5C67.85 39.5 70.31 41.96 70.31 45C70.31 41.96 72.77 39.5 75.81 39.5ZM21.47 68.39C18.43 68.39 15.97 65.93 15.97 62.89C15.97 65.93 13.51 68.39 10.47 68.39C13.51 68.39 15.97 70.85 15.97 73.89C15.97 70.85 18.43 68.39 21.47 68.39Z" /></g></svg>
